lib/brands/icons/elementary.svg

<svg xmlns="http://www.w3.org/2000/svg" fill="none" aria-hidden="true" viewBox="0 0 48 48"><g id="elementary-Icon"><path id="elementary" fill="black" d="M24 3C12.4042 3 3 12.4042 3 24C3 35.5958 12.4042 45 24 45C35.5958 45 45 35.5958 45 24C45 12.4042 35.5958 3 24 3ZM23.9618 5.00264H23.9656C23.977 5.00412 23.9886 5.00412 24 5.00264C32.6825 5.00264 40.0058 10.8292 42.27 18.7805C40.3229 22.7839 37.5872 26.3527 34.227 29.2729C32.61 30.6723 30.8422 31.9132 28.9006 32.7895C26.9572 33.6638 24.8228 34.1621 22.7018 34.0418C21.1873 33.9512 19.7093 33.5393 18.3663 32.8334C22.0443 30.8157 25.3283 28.1512 28.0606 24.9679C29.8857 22.8374 31.4798 20.4052 32.0984 17.6504C32.4134 16.272 32.4611 14.8249 32.1747 13.437C31.8953 12.0352 31.2355 10.7374 30.2675 9.68564C29.3004 8.67701 28.0757 7.95213 26.7262 7.58945C25.3846 7.23229 23.9798 7.1814 22.6159 7.44055C19.8993 7.93882 17.4747 9.51382 15.5427 11.4649C12.1312 14.9013 10.0255 19.7504 10.413 24.5899C10.6077 27.0087 11.4134 29.3836 12.8032 31.3748C13.0762 31.7662 13.3797 32.1346 13.6947 32.4897C11.7817 33.1513 9.80846 33.6239 7.80327 33.9005C6.04393 31.0252 5.08176 27.7333 5.01561 24.3631C4.94946 20.9928 5.7817 17.6657 7.42685 14.7235C9.072 11.7813 11.4707 9.33014 14.3767 7.62175C17.2826 5.91337 20.5909 5.00937 23.9618 5.00264V5.00264ZM24.0955 8.859C24.1031 8.85709 24.126 8.86282 24.1184 8.86091C25.4395 8.86091 26.7663 9.26373 27.8144 10.0579C28.7569 10.787 29.4656 11.7757 29.8533 12.9025C30.2425 14.0352 30.3679 15.2419 30.2198 16.4305C29.9468 18.8035 28.7498 20.9894 27.2932 22.908C24.7083 26.3024 21.2681 29.0228 17.4442 30.9262C17.0815 31.1075 16.7073 31.2832 16.3331 31.4493C15.5342 30.7404 14.857 29.9052 14.3285 28.977C13.2022 26.9839 12.8318 24.6166 13.0495 22.3295C13.2709 20.0405 14.0536 17.8317 15.1151 15.7814C16.3426 13.4065 18.0093 11.1652 20.3307 9.88227C21.4808 9.23098 22.7758 8.8785 24.0974 8.85709L24.0955 8.859ZM42.8618 21.8599C42.942 22.5605 42.9974 23.2707 42.9974 23.9924C42.9974 34.4866 34.4981 42.9935 24.0019 42.9935C21.2414 42.9946 18.5141 42.3919 16.011 41.2277C13.508 40.0636 11.2898 38.3662 9.51191 36.2545C11.5872 35.7676 13.613 35.0902 15.5637 34.2308C16.4438 34.8914 17.4098 35.4412 18.4407 35.8345C21.4762 36.999 24.9164 36.8272 27.9785 35.7676C31.0388 34.7081 33.7459 32.8105 36.1036 30.6035C38.8068 28.0668 41.0882 25.1152 42.8618 21.8599V21.8599Z"/></g></svg>

<svg xmlns="http://www.w3.org/2000/svg" fill="none" aria-hidden="true" viewBox="0 0 48 48"><path fill="#000" d="M24 3C12.404 3 3 12.404 3 24s9.404 21 21 21 21-9.404 21-21S35.596 3 24 3Zm-.038 2.003h.004a.134.134 0 0 0 .034 0c8.682 0 16.006 5.826 18.27 13.777a33.055 33.055 0 0 1-8.043 10.493c-1.617 1.4-3.385 2.64-5.326 3.516-1.944.875-4.078 1.373-6.2 1.253a10.69 10.69 0 0 1-4.335-1.209 34.89 34.89 0 0 0 9.695-7.865c1.825-2.13 3.419-4.563 4.037-7.318.315-1.378.363-2.825.077-4.213a7.787 7.787 0 0 0-1.907-3.751 7.66 7.66 0 0 0-3.542-2.097 9.26 9.26 0 0 0-4.11-.148c-2.717.498-5.141 2.073-7.073 4.024-3.412 3.436-5.518 8.285-5.13 13.125.195 2.419 1 4.794 2.39 6.785.273.391.577.76.892 1.115a30.975 30.975 0 0 1-5.892 1.41A18.987 18.987 0 0 1 23.962 5.004Zm.134 3.856c.007-.002.03.004.022.002 1.322 0 2.648.403 3.696 1.197a6.11 6.11 0 0 1 2.04 2.845 7.864 7.864 0 0 1 .366 3.527c-.273 2.373-1.47 4.56-2.927 6.478-2.585 3.394-6.025 6.115-9.849 8.018a26.79 26.79 0 0 1-1.11.523 9.765 9.765 0 0 1-2.005-2.472c-1.127-1.993-1.497-4.36-1.28-6.648.222-2.288 1.005-4.497 2.066-6.548 1.228-2.375 2.894-4.616 5.216-5.899a7.904 7.904 0 0 1 3.766-1.025l-.002.002Zm18.766 13c.08.701.135 1.412.135 2.133 0 10.495-8.499 19.001-18.995 19.001a18.93 18.93 0 0 1-14.49-6.739 34.63 34.63 0 0 0 6.052-2.023c.88.66 1.846 1.21 2.877 1.603 3.035 1.165 6.475.993 9.538-.066 3.06-1.06 5.767-2.958 8.125-5.165a34.866 34.866 0 0 0 6.758-8.743Z"/></svg>
